!!!!SEGMENT: pl-sa--351-a-vii-111--006_elsner-jozef--missa-in-f-agnus-dei.krn
!!!cenid: 18xx:1271
!!!COM: Elsner, Józef
!!!COM-rismID: pe30000957
!!!CDT: 1769/06/01-1854/04/18
!!!CNT: Polish
!!!OPR: Missa in F
!!!OTL: Agnus Dei
!!!OMV: 006
!!!PDT: 1828
!!!AGN: Sacred; Mass
!!!SMS-siglum: PL-SA
!!!SMS-shelfmark: 351/A VII 111
!!!SMS-shelfwork: 001-006 M
!!!SMS-variant:
!!!SMS-altvar:
!!!NIFC-rismSourceID: 1001070170
!!!NIFC-islandoraID:
!!!URL-pdf-islandora:
!!!URL-scan: https://bc.bdsandomierz.pl/dlibra/publication/1655/edition/1623/content @EN{Scan on Cyfrowa Biblioteka Diecezjalna w Sandomierzu} @PL{Skany w portalu Cyfrowa Biblioteka Diecezjalna w Sandomierzu}
!!!ONB-nifc: UWAGA: części Mszy: 1. Kyrie, 2. Gloria, 3. Credo, 4. Sanctus, 5. Benedictus, 6. Agnus Dei
!!!AIN: 1 alto 1 bass 1 soprn 1 tenor
!!!key: d
**kern	**text	**dynam	**kern	**text	**kern	**text	**dynam	**kern	**text	**dynam
*part4	*part4	*part4	*part3	*part3	*part2	*part2	*	*part1	*part1	*part1
*staff4	*staff4	*	*staff3	*staff3	*staff2	*staff2	*	*staff1	*staff1	*
*I"Baſso.	*	*	*I"Tenore.	*	*I"Alto	*	*	*I"Canto.	*	*
*I'B	*	*	*I'T	*	*I'A	*	*	*I'S	*	*
*Ibass	*	*	*Itenor	*	*Ialto	*	*	*Isoprn	*	*
*ICvox	*	*	*ICvox	*	*ICvox	*	*	*ICvox	*	*
*clefF4	*	*	*clefC3	*	*clefC4	*	*	*clefC1	*	*
*k[b-]	*	*	*k[b-]	*	*k[b-]	*	*	*k[b-]	*	*
*d:	*	*	*d:	*	*d:	*	*	*d:	*	*
*M6/8	*	*	*M6/8	*	*M6/8	*	*	*M6/8	*	*
=1	=1	=1	=1	=1	=1	=1	=1	=1	=1	=1
!LO:TX:a:i:t=Andantino	!	!LO:DY:a:rj:t=p.	!	!	!LO:TX:a:i:t=Andantino.	!	!	!LO:TX:a:i:t=Andantino.	!	!LO:DY:a:rj
4.D\	A-	p	8r	.	4r	.	.	8r	.	p
!	!	!	!LO:TX:a:i:t=Andantino	!	!	!	!	!LO:TX:a:i:t=dolce	!	!
.	.	.	8d\L	A-	.	.	.	8f/	A-	.
.	.	.	8e\J	.	8r	.	.	8g/	-gnus	.
4.D\	-gnus	.	[4.f\	-gnus	8r	.	.	[4.a\	De-	.
.	.	.	.	.	8A\	A-	.	.	.	.
.	.	.	.	.	8A\	-gnus	.	.	.	.
=2	=2	=2	=2	=2	=2	=2	=2	=2	=2	=2
4.D\	De-	.	8f\]	De-	8d\	De-	.	8a\]	-i	.
.	.	.	8g\	-i	8d\	-i	.	8b-\	qui	.
.	.	.	8f\	qui	8d\	qui	.	8a\	.	.
4D\	-i	.	8f\L	tol-	4.A\	tol-	.	8a\L	-tol-	.
.	.	.	8a\	.	.	.	.	8ff\	.	.
8C#X\	qui	.	8g\J	.	.	.	.	8ee\J	.	.
=3	=3	=3	=3	=3	=3	=3	=3	=3	=3	=3
8D\	tol-	.	4f\	-lis	4A\	-lis	.	8ee\L	-lis	.
8D\	-lis	.	.	.	.	.	.	8dd\J	.	.
8BB-/	pec-	.	8f\	pec-	8B-\	pec-	.	8dd\	pec-	.
4GG/	-ca-	.	4b-\	-ca-	4B-\	-ca-	.	4dd\	-ca-	.
8GG/	-ta	.	16a\LL	-ta	8d\	-ta	.	16cc\LL	-ta	.
.	.	.	16g\JJ	.	.	.	.	16b-\JJ	.	.
=4	=4	=4	=4	=4	=4	=4	=4	=4	=4	=4
8AA/	mun-	.	8f\	mun-	16d\LL	mun-	.	8a\L	mun-	.
.	.	.	.	.	16A\JJ	.	.	.	.	.
8AA/	-di	.	8e\	-di	8A\	-di	.	8dd\J	.	.
16AA/	mi-	.	8r	.	8r	.	.	8cc#X\	-di	.
16AA/	-se-	.	.	.	.	.	.	.	.	.
4BB-^>/	-re-	.	4r	.	4r	.	.	8r	.	.
.	.	.	.	.	.	.	.	8r	.	.
8AA/	-re	.	16g\	mi-	16c#X\	mi-	.	16a\	mi-	.
.	.	.	16g\	-se-	16c#\	-se-	.	16a\	-se-	.
!	!	!	!	!	!LO:LB:g=original	!	!	!LO:LB:g=original	!	!
=5	=5	=5	=5	=5	=5	=5	=5	=5	=5	=5
4.C#X/	mi-	.	4.g\	-re-	4.e\	-re-	.	4b-^\	-re-	.
.	.	.	.	.	.	.	.	(8a\	-re	.
8D\L	.	.	8f\L	.	8A\L	.	.	8a\L)	mi-	.
8E\J	.	.	8e\	.	8c#X\	.	.	8g\J	.	.
8F\	-se-	.	8d\J	.	8d\J	.	.	8f\	-se-	.
!LO:LB:g=original	!	!	!	!	!	!	!	!	!	!
=6	=6	=6	=6	=6	=6	=6	=6	=6	=6	=6
4G\	-re-	.	4.d\	.	4B-\	.	.	4e/	-re-	.
8F\	.	.	.	.	8A\	.	.	8f/	-re	.
4.E\	-re	.	4.c\	-re	(4.G\	-re	.	8g\L	mi-	.
.	.	.	.	.	.	.	.	8cc\	.	.
.	.	.	.	.	.	.	.	[8b-\J	.	.
=7	=7	=7	=7	=7	=7	=7	=7	=7	=7	=7
4F\	mi-	.	(8c\L	mi-	8F\L)	mi-	.	8b-\L]	.	.
.	.	.	8f\J)	-se-	8c\J	-se-	.	8a\J	.	.
8BB-/	-se-	.	8f\	-re-	8B-\	.	.	8dd\	-se-	.
4C/	-re-	.	4f\	.	4A\	-re-	.	16cc\LL	-re-	.
.	.	.	.	.	.	.	.	16a\JJ	.	.
.	.	.	.	.	.	.	.	8f\	.	.
8C/	-re	.	8e\	-re	8B-\	-re	.	8g\	-re	.
!	!	!	!LO:LB:g=original	!	!	!	!	!	!	!
=8	=8	=8	=8	=8	=8	=8	=8	=8	=8	=8
4.F\	no-	.	4.e\	no-	4.B-\	no-	.	4.g\	no-	.
4F\	-bis.	.	4f\	-bis	4A\	-bis	.	4f\	-bis	.
(8E\	A-	.	(8g\	A-	(8c#X\	A-	.	8r	.	.
=9	=9	=9	=9	=9	=9	=9	=9	=9	=9	=9
4.D\)	.	.	8f\L)	.	4.d\)	.	.	8r	.	.
.	.	.	8d\J	.	.	.	.	8f\	A-	.
.	.	.	8e\	-gnus	.	.	.	8g\	-gnus	.
4.D\	-gnus	.	[4.f\	De-	4.d\	-gnus	.	[4.a\	De-	.
!	!	!	!	!	!	!	!	!LO:LB:g=original	!	!
=10	=10	=10	=10	=10	=10	=10	=10	=10	=10	=10
4.D\	De-	.	8f\]	.	8d\	De-	.	8a\]	-i	.
.	.	.	8g\	-i	8d\	-i	.	8b-\	qui	.
.	.	.	8f\	qui	8d\	qui	.	8a\	.	.
4D\	-i	.	8f\L	tol-	4.A\	tol-	.	8a\L	-tol-	.
.	.	.	8a\	.	.	.	.	8ff\	.	.
8C#X\	qui	.	(8g\J	.	.	.	.	8ee\J	.	.
!	!	!	!	!	!LO:LB:g=original	!	!	!	!	!
=11	=11	=11	=11	=11	=11	=11	=11	=11	=11	=11
8D\	tol-	.	4f\)	-lis	4A\	-lis	.	(8ee\L	-lis	.
8D\	-lis	.	.	.	.	.	.	8dd\J)	.	.
8BB-/	pec-	.	8f\	pec-	8B-\	pec-	.	8dd\	pec-	.
4GG/	-ca-	.	4b-\	-ca-	4B-\	-ca-	.	4dd\	-ca-	.
8GG/	-ta	.	16a\LL	-ta	8d\	-ta	.	16cc\LL	-ta	.
.	.	.	16g\JJ	.	.	.	.	16b-\JJ	.	.
!LO:LB:g=original	!	!	!	!	!	!	!	!	!	!
=12	=12	=12	=12	=12	=12	=12	=12	=12	=12	=12
8AA/	mun-	.	8f\	mun-	16d\LL	mun-	.	16a\LL	mun-	.
.	.	.	.	.	16A\JJ	.	.	16ff\JJ	.	.
8GG/	-di	.	8g\	-di	8B-\	-di	.	8ee\	-di	.
16C/	mi-	.	8r	.	8r	.	.	8r	.	.
16C/	-se-	.	.	.	.	.	.	.	.	.
4D^/	-re-	.	4r	.	4r	.	.	4r	.	.
8C/	-re	.	16e\	mi-	16B-\	mi-	.	16cc\	mi-	.
.	.	.	16e\	-se-	16B-\	-se-	.	16cc\	-se-	.
!	!	!	!LO:LB:g=original	!	!	!	!	!	!	!
=13	=13	=13	=13	=13	=13	=13	=13	=13	=13	=13
(4.E\	mi-	.	4.g\	-re-	4.B-\	-re-	.	4dd^\	-re-	.
.	.	.	.	.	.	.	.	(8cc\	-re	.
8F\L)	.	.	8a\L	.	8A\L	.	.	8cc\L)	.	.
8G\	.	.	8g\	.	8B-\	.	.	8b-\J	mi-	.
8A\J	-se-	.	8f\J	.	8c\J	.	.	8a\	-se-	.
!	!	!	!	!	!	!	!	!LO:LB:g=original	!	!
=14	=14	=14	=14	=14	=14	=14	=14	=14	=14	=14
4B-\	-re-	.	4.f\	.	4d\	.	.	4g\	-re-	.
8A\	.	.	.	.	8c\	.	.	8a\	-re	.
8G\L	.	.	4g\	.	4B-\	.	.	8b-\L	mi-	.
8E\	-re	.	.	.	.	.	.	8gg\	.	.
8F\J	.	.	8a\	-re	8A\	-re	.	[8ff\J	.	.
=15	=15	=15	=15	=15	=15	=15	=15	=15	=15	=15
4C/	mi-	.	4g\	mi-	4B-\	mi-	.	8ff\L]	.	.
.	.	.	.	.	.	.	.	8ee\J	.	.
8D/	-se-	.	8f\	-se-	8A\	-se-	.	8ff\	-se-	.
4E\	-re-	.	4a\	-re-	4c\	-re-	.	(16ee\LL	-re-	.
.	.	.	.	.	.	.	.	16cc\JJ)	.	.
.	.	.	.	.	.	.	.	8a\	-re	.
8E\	-re	.	8g#X\	-re	8d\	-re	.	8bn\	.	.
!	!	!	!	!	!LO:LB:g=original	!	!	!	!	!
=16	=16	=16	=16	=16	=16	=16	=16	=16	=16	=16
4.A\	no-	.	4.g#X\	no-	4.d\	no-	.	4.bn\	no-	.
8A\	-bis	.	4a\	-bis	8c\	-bis.	.	4a\	-bis	.
8c\	A-	.	.	.	8e\	A-	.	.	.	.
8Bn\	-gnus	.	8r	.	8d\	-gnus	.	8r	.	.
!LO:LB:g=original	!	!	!	!	!	!	!	!	!	!
=17	=17	=17	=17	=17	=17	=17	=17	=17	=17	=17
!	!	!	!LO:TX:a:t=1.	!	!	!	!	!	!	!
8A\	De-	.	2.r	.	8c\	De[[i]]-	.	4.r	.	.
8G#X\	-i	.	.	.	8B-\	-i	.	.	.	.
8A\	qui	.	.	.	8c\	qui	.	.	.	.
(4.Gn\	tol-	.	.	.	4.c#X\	tol-	.	8r	.	.
.	.	.	.	.	.	.	.	8a\	A-	.
.	.	.	.	.	.	.	.	8b-X\	-gnus	.
=18	=18	=18	=18	=18	=18	=18	=18	=18	=18	=18
8F\)	-lis.	.	8r	.	8.d\	-lis	.	16a\LL	De-	.
.	.	.	.	.	.	.	.	16dd\JJ	.	.
8F\	A-	.	8a\	A-	.	.	.	8dd\	-i	.
.	.	.	.	.	16d\	pec-	.	.	.	.
8E\	-gnus	.	8g\	-gnus	16d\	-ca-	.	8dd\	qui	.
.	.	.	.	.	16d\	-ta	.	.	.	.
4D/	De-	.	4f\	de-	8d\	mun-	.	(4dd\	tol-	.
.	.	.	.	.	8A\	-di	.	.	.	.
8C/	-i	.	8g\	-i	8c\	pec-	.	8ee\)	.	.
!	!	!	!LO:LB:g=original	!	!	!	!	!LO:LB:g=original	!	!
=19	=19	=19	=19	=19	=19	=19	=19	=19	=19	=19
!	!	!	!	!	!	!	!	!LO:N:vis=4.	!	!
8AA/	qui	.	8f\	qui	4.c\	-ca-	.	8.ff\	-lis	.
8A\	tol-	.	8cc\	tol-	.	.	.	.	.	.
.	.	.	.	.	.	.	.	16ff\	pec-	.
8G\	-lis	.	8b-\	-lis	.	.	.	16ff\	-ca-	.
.	.	.	.	.	.	.	.	16ff\	-ta	.
8F\	pec-	.	8a\	pec-	4.c\	-ta	.	8ff\	mun-	.
8F\	-ca-	.	8a\	-ca-	.	.	.	8cc\	-di	.
8F\	-te	.	8a\	-ta	.	.	.	8r	.	.
=20	=20	=20	=20	=20	=20	=20	=20	=20	=20	=20
4.E\	mun-	.	4.g\	mun-	4c\	mun-	.	4r	.	.
.	.	.	.	.	8c#X\	.	.	8r	.	.
8D\	-di	.	8f\	-di	4d\	-di	.	8r	.	.
8D\	do-	.	8f\	do-	.	.	.	8a\	do-	.
8C\	-na	.	8e\	-na	8r	.	.	8a\	-na	.
!LO:LB:g=original	!	!	!	!	!LO:LB:g=original	!	!	!	!	!
=21	=21	=21	=21	=21	=21	=21	=21	=21	=21	=21
4.BB-/	no-	.	4.d\	no-	4.d\	no-	.	4.a\	no-	.
4.BB-/	-bis	.	4.d\	-bis	4.d\	-bis	.	4.g#X\	-bis	.
=22	=22	=22	=22	=22	=22	=22	=22	=22	=22	=22
4.AA/	pa-	.	4.e\	pa-	4.c#X\	pa-	.	4.a\	pa-	.
4AA/	-cem	.	4e\	-cem	4c#\	-cem	.	4a\	-cem	.
8r	.	.	8r	.	8r	.	.	8r	.	.
=23	=23	=23	=23	=23	=23	=23	=23	=23	=23	=23
*	*	*	*2\right	*	*2\right	*	*	*2\right	*	*
2.GG/	pa-	.	2.e\	pa-	2.cn\	pa-	.	(>2.b-\	pa-	.
!	!	!	!	!	!	!	!	!LO:LB:g=original	!	!
=|!24	=|!24	=|!24	=|!24	=|!24	=|!24	=|!24	=|!24	=|!24	=|!24	=|!24
*M2/2	*	*	*M2/2	*	*M2/2	*	*	*M2/2	*	*
*met(c|)	*	*	*met(c|)	*	*met(c|)	*	*	*met(c|)	*	*
!LO:TX:a:i:t=Moderato	!	!	!LO:TX:a:i:t=Moderato.	!	!LO:TX:a:i:t=Moderato	!	!LO:DY:b:rj	!LO:TX:a:i:t=Moderato.	!	!LO:DY:a:rj
2FF/	-cem	.	2f\	-cem	2c\	-cem	p	2a\)	-cem	p
*2\right	*	*	*	*	*	*	*	*	*	*
[2F\	do-	.	2f\	do-	[2F/	do-	.	[2f/	do-	.
=25	=25	=25	=25	=25	=25	=25	=25	=25	=25	=25
2F\]	.	.	2f\	.	2F/]	.	.	2f/]	.	.
2A\	-na	.	2a\	-na	2A\	-na	.	2a\	-na	.
=26	=26	=26	=26	=26	=26	=26	=26	=26	=26	=26
2G\	no-	.	2g\	no-	2G/	no-	.	2g\	no-	.
!	!	!	!	!	!	!	!	!	!	!LO:DY:a
2c\	-bis	.	2cc\	-bis	2c\	-bis	.	2cc\	-bis	<
=27	=27	=27	=27	=27	=27	=27	=27	=27	=27	=27
2A\	pa-	.	2a\	pa-	(2A/	pa-	.	(2a\	pa-	.
2G\	.	.	2g\	-cem	2G/)	.	.	2g\)	.	[[
=28	=28	=28	=28	=28	=28	=28	=28	=28	=28	=28
!	!	!	!LO:TX:i:t=Con Intenzione.	!	!	!	!	!	!	!
2F\	.	.	1f\	do-	4F/	.	.	4a\	.	.
.	.	.	.	.	4G/	.	.	4b-\	.	.
2E\	.	.	.	.	4A/	.	.	4cc\	.	.
.	.	.	.	.	8B-/L	.	.	8dd\L	.	.
.	.	.	.	.	8c/J	.	.	8ee\J	.	.
!LO:LB:g=original	!	!	!	!	!LO:LB:g=original	!	!	!	!	!
=29	=29	=29	=29	=29	=29	=29	=29	=29	=29	=29
2D\	.	.	1a\	-na	1d\	.	.	[1ff\	.	.
2C\	.	.	.	.	.	.	.	.	.	.
=30	=30	=30	=30	=30	=30	=30	=30	=30	=30	=30
2BB-/	.	.	1g\	no-	2d\	.	.	2ff\]	.	.
2C/	.	.	.	.	2c\	.	.	2ee\	.	.
=31	=31	=31	=31	=31	=31	=31	=31	=31	=31	=31
2AA/	.	.	1cc\	-bis	4c\	.	.	2ff\	-cem	.
.	.	.	.	.	4d\	.	.	.	.	.
2GG/	.	.	.	.	4e\	.	.	2r	.	.
.	.	.	.	.	[4f\	.	.	.	.	.
!	!	!	!	!	!	!	!	!LO:PB:g=original	!	!
=32	=32	=32	=32	=32	=32	=32	=32	=32	=32	=32
!	!	!	!	!	!	!	!	!LO:TX:a:t=2.	!	!
2FF/	.	.	1a\	pa-	4f\]	.	.	0r	.	.
.	.	.	.	.	4e\	.	.	.	.	.
2F\	.	.	.	.	4d\	.	.	.	.	.
.	.	.	.	.	4c\	.	.	.	.	.
=33	=33	=33	=33	=33	=33	=33	=33	=33	=33	=33
!LO:N:xstem:cue	!	!	!	!	!	!	!	!	!	!
4F\	.	.	1g\	.	2.B-\	.	.	.	.	.
8E\L	.	.	.	.	.	.	.	.	.	.
8D\J	.	.	.	.	.	.	.	.	.	.
2E\	-cem	.	.	.	.	.	.	.	.	.
.	.	.	.	.	8c\L	.	.	.	.	.
.	.	.	.	.	8B-\J	.	.	.	.	.
!	!	!	!LO:LB:g=original	!	!	!	!	!	!	!
=34	=34	=34	=34	=34	=34	=34	=34	=34	=34	=34
!LO:TX:a:i:t=Con Pretenzione	!	!	!	!	!	!	!	!	!	!
1F\	do-	.	4cc\	.	2A\	-cem	.	2r	.	.
.	.	.	4b-\	.	.	.	.	.	.	.
.	.	.	4a\	.	2r	.	.	[2cc\	do-	.
.	.	.	[4g\	.	.	.	.	.	.	.
=35	=35	=35	=35	=35	=35	=35	=35	=35	=35	=35
!	!	!	!	!	!LO:TX:a:t=2.	!	!	!	!	!
1A\	-na	.	4g\]	.	0r	.	.	2cc\]	.	.
.	.	.	2f\	.	.	.	.	.	.	.
.	.	.	.	.	.	.	.	[2ff\	-na-	.
.	.	.	8g\L	.	.	.	.	.	.	.
.	.	.	8a\J	.	.	.	.	.	.	.
=36	=36	=36	=36	=36	=36	=36	=36	=36	=36	=36
1G\	no-	.	2.b-\	.	.	.	.	2ff\]	.	.
.	.	.	.	.	.	.	.	[2ee\	-no-	.
.	.	.	4a\	.	.	.	.	.	.	.
!LO:PB:g=original	!	!	!	!	!LO:PB:g=original	!	!	!	!	!
=37	=37	=37	=37	=37	=37	=37	=37	=37	=37	=37
1c\	-bis	.	4g\	.	2r	.	.	2ee\]	.	.
.	.	.	4f\	.	.	.	.	.	.	.
.	.	.	4e\	.	2c\	pa-	.	[2gg\	-bis	.
.	.	.	8d\L	.	.	.	.	.	.	.
.	.	.	8e\J	.	.	.	.	.	.	.
=38	=38	=38	=38	=38	=38	=38	=38	=38	=38	=38
(1A\	pa-	.	1cc\	-cem	1c\	.	.	2gg\]	.	.
.	.	.	.	.	.	.	.	2ff\	pa-	.
=39	=39	=39	=39	=39	=39	=39	=39	=39	=39	=39
1G\)	.	.	2.b-\	pa-	2d\	.	.	4ff\	.	.
.	.	.	.	.	.	.	.	8ee\L	.	.
.	.	.	.	.	.	.	.	8dd\J	.	.
.	.	.	.	.	[2c\	.	.	2ee\	.	.
.	.	.	8cc\L	cem	.	.	.	.	.	.
.	.	.	8b-\J	.	.	.	.	.	.	.
=40	=40	=40	=40	=40	=40	=40	=40	=40	=40	=40
2F\	-cem	.	2a\	.	2c\]	-cem	.	4ff\	.	.
.	.	.	.	.	.	.	.	4ee\	.	.
[2F\	do-	.	2a\	do-	2r	.	.	4dd\	.	.
.	.	.	.	.	.	.	.	4cc\	.	.
!	!	!	!LO:PB:g=original	!	!	!	!	!LO:LB:g=original	!	!
=41	=41	=41	=41	=41	=41	=41	=41	=41	=41	=41
2F\]	.	.	1g\	.	2r	.	.	(4b-\	.	.
.	.	.	.	.	.	.	.	8cc\L)	.	.
.	.	.	.	.	.	.	.	8dd\J	.	.
2E\	na	.	.	.	[2c\	pa-	.	4cc\	.	.
.	.	.	.	.	.	.	.	4b-\	.	.
=42	=42	=42	=42	=42	=42	=42	=42	=42	=42	=42
!	!	!	!	!	!LO:N:xstem:cue	!	!	!	!	!
2F\	no-	.	1f\	-na	4c\]	.	.	(4a\	.	.
.	.	.	.	.	4A\	.	.	8b-\L	.	.
.	.	.	.	.	.	.	.	8cc\J)	.	.
2D\	-bis	.	.	.	[2B-\	.	.	4b-\	.	.
.	.	.	.	.	.	.	.	4a\	.	.
=43	=43	=43	=43	=43	=43	=43	=43	=43	=43	=43
!	!	!	!	!	!LO:N:xstem:cue	!	!	!	!	!
2E\	pa-	.	2g\	no-	4B-\]	.	.	(4g\	.	.
.	.	.	.	.	4G\	.	.	8a\L	.	.
.	.	.	.	.	.	.	.	8b-\J	.	.
2C#X/	.	.	2e\	-bis	[2A\	.	.	4a\)	.	.
.	.	.	.	.	.	.	.	4g\	.	.
=44	=44	=44	=44	=44	=44	=44	=44	=44	=44	=44
!	!	!	!	!	!LO:N:xstem:cue	!	!	!	!	!
2D/	.	.	2.f\	pa-	4A\]	.	.	2f/	.	.
.	.	.	.	.	4F\	.	.	.	.	.
2BB-/	.	.	.	.	[2f\	.	.	2dd\	.	.
.	.	.	4g\	.	.	.	.	.	.	.
!LO:LB:g=original	!	!	!	!	!LO:LB:g=original	!	!	!	!	!
=45	=45	=45	=45	=45	=45	=45	=45	=45	=45	=45
1C/	.	.	2a\	.	2f\]	.	.	2.cc\	.	.
.	.	.	2g\	.	2e\	.	.	.	.	.
.	.	.	.	.	.	.	.	4b-\	.	.
=46	=46	=46	=46	=46	=46	=46	=46	=46	=46	=46
2F\	-cem	.	2f\	-cem	4f\	.	.	2a\	-cem.	.
.	.	.	.	.	(4e\	.	.	.	.	.
[2F\	do-	.	2a\	.	4d\	.	.	2r	.	.
.	.	.	.	.	4c\)	.	.	.	.	.
!	!	!	!	!	!	!	!	!LO:LB:g=original	!	!
=47	=47	=47	=47	=47	=47	=47	=47	=47	=47	=47
2F\]	-na	.	1g\	do-	4B-\	.	.	2r	.	.
.	.	.	.	.	8c\L	.	.	.	.	.
.	.	.	.	.	8d\J	.	.	.	.	.
2E\	.	.	.	.	4c\	.	.	[2cc\	pa-	.
.	.	.	.	.	4B-\	.	.	.	.	.
=48	=48	=48	=48	=48	=48	=48	=48	=48	=48	=48
!	!	!	!	!	!	!	!	!LO:N:xstem:cue	!	!
2F\	no-	.	1f\	-na	4A\	.	.	4cc\]	.	.
.	.	.	.	.	8B-\L	.	.	4a\	.	.
.	.	.	.	.	8c\J	.	.	.	.	.
2D\	-bis	.	.	.	4B-\	.	.	[2b-\	.	.
.	.	.	.	.	4A\	.	.	.	.	.
=49	=49	=49	=49	=49	=49	=49	=49	=49	=49	=49
!	!	!	!	!	!	!	!	!LO:N:xstem:cue	!	!
2E\	pa-	.	2g\	no-	4G/	.	.	4b-\]	.	.
.	.	.	.	.	8A/L	.	.	4g\	.	.
.	.	.	.	.	8B-/J	.	.	.	.	.
2C#X/	.	.	2e\	-bis	4A/	.	.	[2a\	.	.
.	.	.	.	.	4G/	.	.	.	.	.
=50	=50	=50	=50	=50	=50	=50	=50	=50	=50	=50
!	!	!	!	!	!	!	!	!LO:N:xstem:cue	!	!
2D\	.	.	2.f\	pa-	2F/	.	.	4a\]	.	.
.	.	.	.	.	.	.	.	4f\	.	.
2BB-/	.	.	.	.	2d\	.	.	[2ff\	.	.
.	.	.	(4g\	.	.	.	.	.	.	.
!	!	!	!LO:LB:g=original	!	!LO:LB:g=original	!	!	!	!	!
=51	=51	=51	=51	=51	=51	=51	=51	=51	=51	=51
1Cn/	.	.	2a\)	.	2.c\	.	.	2ff\]	.	.
.	.	.	2g\	.	.	.	.	2ee\	.	.
.	.	.	.	.	4B-\	.	.	.	.	.
=52	=52	=52	=52	=52	=52	=52	=52	=52	=52	=52
2BBn^;/	-cem	.	2a-X;\	-cem	2d;\	-cem	.	2ff;\^<	-cem	.
2r	.	.	2r	.	2r	.	.	2f/	do-	.
!LO:LB:g=original	!	!	!	!	!	!	!	!	!	!
=53	=53	=53	=53	=53	=53	=53	=53	=53	=53	=53
!	!	!	!	!	!LO:TX:a:t=1.	!	!	!	!	!LO:DY:a
2r	.	.	4r	.	1r	.	.	2a\	.	<
.	.	.	2f\	do-	.	.	.	.	.	.
2C/	do-	.	.	.	.	.	.	2g\	-na	[
.	.	.	4e\	-na	.	.	.	.	.	.
=54	=54	=54	=54	=54	=54	=54	=54	=54	=54	=54
*	*	*below	*	*	*	*	*	*	*	*
2AA/	.	<	1f\	no-	4r	.	.	2cc\	no-	.
.	.	.	.	.	2A/	do-	.	.	.	.
2D/	-na	.	.	.	.	.	.	2a\	-bis	.
.	.	.	.	.	4G/	-na	.	.	.	.
!	!	!	!	!	!	!	!	!LO:LB:g=original	!	!
=55	=55	=55	=55	=55	=55	=55	=55	=55	=55	=55
4D/	no-	[	1f\	-bis	2F/	no-	.	4b-\	pa-	.
4C/	.	<	.	.	.	.	.	4a\	.	.
4BB-/	-bis	.	.	.	4B-\	.	.	4dd\	.	.
4AA/	.	[	.	.	4c\	-bis	.	4cc\	.	.
=56	=56	=56	=56	=56	=56	=56	=56	=56	=56	=56
2GG/	pa-	.	1g\	pa-	2d\	pa-	.	2bn\	.	.
2C/	.	.	.	.	2e\	.	.	2b-X\	.	.
=57	=57	=57	=57	=57	=57	=57	=57	=57	=57	=57
2FF/	-cem	.	2f\	-cem	2f\	-cem	.	2a\	-cem	.
2AA/	pa-	.	2f\	pa-	2c\	pa-	.	2ff\	pa-	.
!	!	!	!	!	!LO:LB:g=original	!	!	!	!	!
=58	=58	=58	=58	=58	=58	=58	=58	=58	=58	=58
!	!	!	!	!	!	!	!	!LO:N:xstem:cue	!	!
1C/	.	.	1g\	.	2.c\	.	.	4ee\	.	.
.	.	.	.	.	.	.	.	8ee\L	.	.
.	.	.	.	.	.	.	.	8dd\J	.	.
.	.	.	.	.	.	.	.	2ee\	.	.
.	.	.	.	.	4B-\	.	.	.	.	.
=59	=59	=59	=59	=59	=59	=59	=59	=59	=59	=59
2C#X^;/	-cem	.	2g;\	-cem	2B-;\	-cem	.	2ee;\^<	-cem	.
!	!	!	!LO:TX:t=P:problem=brak początku łuku	!	!	!	!	!	!	!
2r	.	.	(2g\	do-	2r	.	.	2r	.	.
!	!	!	!LO:LB:g=original	!	!	!	!	!	!	!
=60	=60	=60	=60	=60	=60	=60	=60	=60	=60	=60
!	!	!	!	!	!LO:TX:a:t=1.	!	!	!LO:TX:a:t=1.	!	!
4r	.	.	2b-\)	-na	1r	.	.	1r	.	.
2G\	do-	.	.	.	.	.	.	.	.	.
.	.	.	2a\	.	.	.	.	.	.	.
[4F#X\	-na	.	.	.	.	.	.	.	.	.
!LO:LB:g=original	!	!	!	!	!	!	!	!	!	!
=61	=61	=61	=61	=61	=61	=61	=61	=61	=61	=61
4F#\]	.	.	2dd\	no-	2r	.	.	2r	.	.
4D\	pa-	.	.	.	.	.	.	.	.	.
[2G\	.	.	2b-\	-[bis]	(2G/	do-	.	2b-\	do-	.
!	!	!	!	!	!	!	!	!LO:LB:g=original	!	!
=62	=62	=62	=62	=62	=62	=62	=62	=62	=62	=62
!LO:N:xstem:cue	!	!	!	!	!	!	!	!	!	!LO:DY:a
4G\]	.	.	2a\	pa-	2A\)	.	.	2dd\	.	<
2Fn\	.	.	.	.	.	.	.	.	.	.
.	.	.	2g\	.	2c\	-na	.	2cc\	-na	.
4E\	.	.	.	.	.	.	.	.	.	[[
=63	=63	=63	=63	=63	=63	=63	=63	=63	=63	=63
2D/	.	.	2f\	.	2A\	pa-	.	[1ff\	pa-	.
2D-X/	.	.	(2a-X\	.	2Bn\	.	.	.	.	.
=64	=64	=64	=64	=64	=64	=64	=64	=64	=64	=64
[>1C/	.	.	2an\)	.	2c\	.	.	1ff\_	.	.
.	.	.	2f\	.	2A\	.	.	.	.	.
=65	=65	=65	=65	=65	=65	=65	=65	=65	=65	=65
!	!	!	!	!	!	!	!	!	!	!LO:DY:b:rj
1C/]	.	f	2g\	.	2B-X\	.	.	2ff\]	.	f
.	.	.	4.g\	.	4.B-\	.	.	4.ee\	.	.
.	.	.	8f\	.	8A\	.	.	8ff\	.	.
!	!	!	!	!	!LO:LB:g=original	!	!	!	!	!
=66	=66	=66	=66	=66	=66	=66	=66	=66	=66	=66
!LO:TX:b:i:t=Finis	!	!	!LO:TX:b:i:t=Fine	!	!LO:TX:b:i:t=Fine	!	!	!LO:TX:b:i:t=Fine	!	!
0F/ 0FF/	-cem	.	0a\	-cem	0c\	-cem	.	0ff\	-cem.	.
==	==	==	==	==	==	==	==	==	==	==
*-	*-	*-	*-	*-	*-	*-	*-	*-	*-	*-
!!!system-decoration: [(*)]
!!!RDF**kern: > = above
!!!RDF**kern: < = below
!!!ENC: Berenika Jozajtis
!!!END: 2020-12-10
!!!EED: Andrzej Borzym
!!!EEV: 2022-01-07
